X: 35084
T: Rolling In The Ryegrass
R: reel
M: 4/4
K: Dmajor
|:ABAF DFAF|G2 BG dGBG|ABAF DFAF|GBAF E2 D2:|
|:ABde f2 df|g2 eg fedB|ABde f2 df|afdf e2 dB:|

